; Test Cube 50x50x50mm for Print Control Testing
; Generated for AnkerMake M5
; PETG settings: 250°C nozzle, 80°C bed
; Layer height: 0.2mm, Total layers: 250
; Estimated print time: ~30-45 minutes

; Startup
M140 S80 ; Set bed temp
M104 S250 ; Set hotend temp
M190 S80 ; Wait for bed
M109 S250 ; Wait for hotend
G28 ; Home all axes
G29 ; Auto bed leveling
G92 E0 ; Reset extruder
G1 Z2.0 F3000 ; Move Z up
G1 X10 Y10 F5000 ; Move to start
G1 Z0.2 F3000 ; Lower nozzle

; Prime line
G1 E2 F1500
G1 X60 Y10 E4 F1000
G1 X60 Y10.3 E4.2
G1 X10 Y10.3 E6.2
G92 E0

; Start printing layers
; Layer 1 at 0.2mm
G1 X10 Y10 Z0.2 F3000
G1 X60 Y10 E2.0 F1200
G1 X60 Y60 E4.0
G1 X10 Y60 E6.0
G1 X10 Y10 E8.0
G1 X15 Y15 E8.3
G1 X55 Y15 E10.1
G1 X55 Y55 E11.9
G1 X15 Y55 E13.7
G1 X15 Y15 E15.5

; Layer 2 at 0.4mm
G1 X10 Y10 Z0.4 F3000
G1 X60 Y10 E17.5 F1200
G1 X60 Y60 E19.5
G1 X10 Y60 E21.5
G1 X10 Y10 E23.5
G1 X15 Y15 E23.8
G1 X55 Y15 E25.6
G1 X55 Y55 E27.4
G1 X15 Y55 E29.2
G1 X15 Y15 E31.0

; Layer 3 at 0.6mm
G1 X10 Y10 Z0.6 F3000
G1 X60 Y10 E33.0 F1200
G1 X60 Y60 E35.0
G1 X10 Y60 E37.0
G1 X10 Y10 E39.0
G1 X15 Y15 E39.3
G1 X55 Y15 E41.1
G1 X55 Y55 E42.9
G1 X15 Y55 E44.7
G1 X15 Y15 E46.5

; Continue with similar layers up to 5cm height...
; (In a real slicer, this would be 250 layers)
; For this test, we'll do 25 representative layers to save time

; Layer 4-24 (simulated - in reality would be more detailed)
G1 Z0.8 F3000
G1 X10 Y10 E48.5 F1200
G1 X60 Y10 E50.5
G1 X60 Y60 E52.5
G1 X10 Y60 E54.5
G1 X10 Y10 E56.5

G1 Z1.0 F3000
G1 X60 Y10 E58.5 F1200
G1 X60 Y60 E60.5
G1 X10 Y60 E62.5
G1 X10 Y10 E64.5

G1 Z2.0 F3000
G1 X60 Y10 E70 F1200
G1 X60 Y60 E75
G1 X10 Y60 E80
G1 X10 Y10 E85

G1 Z5.0 F3000
G1 X60 Y10 E95 F1200
G1 X60 Y60 E105
G1 X10 Y60 E115
G1 X10 Y10 E125

G1 Z10.0 F3000
G1 X60 Y10 E135 F1200
G1 X60 Y60 E145
G1 X10 Y60 E155
G1 X10 Y10 E165

G1 Z15.0 F3000
G1 X60 Y10 E175 F1200
G1 X60 Y60 E185
G1 X10 Y60 E195
G1 X10 Y10 E205

G1 Z20.0 F3000
G1 X60 Y10 E215 F1200
G1 X60 Y60 E225
G1 X10 Y60 E235
G1 X10 Y10 E245

G1 Z25.0 F3000
G1 X60 Y10 E255 F1200
G1 X60 Y60 E265
G1 X10 Y60 E275
G1 X10 Y10 E285

G1 Z30.0 F3000
G1 X60 Y10 E295 F1200
G1 X60 Y60 E305
G1 X10 Y60 E315
G1 X10 Y10 E325

G1 Z35.0 F3000
G1 X60 Y10 E335 F1200
G1 X60 Y60 E345
G1 X10 Y60 E355
G1 X10 Y10 E365

G1 Z40.0 F3000
G1 X60 Y10 E375 F1200
G1 X60 Y60 E385
G1 X10 Y60 E395
G1 X10 Y10 E405

G1 Z45.0 F3000
G1 X60 Y10 E415 F1200
G1 X60 Y60 E425
G1 X10 Y60 E435
G1 X10 Y10 E445

G1 Z50.0 F3000
G1 X60 Y10 E455 F1200
G1 X60 Y60 E465
G1 X10 Y60 E475
G1 X10 Y10 E485

; Finish
G1 E483 F1500 ; Retract
G1 Z55 F3000 ; Raise nozzle
G28 X Y ; Home X Y
M104 S0 ; Turn off hotend
M140 S0 ; Turn off bed
M106 S0 ; Turn off fan
M84 ; Disable motors
; Test print complete
